Suru++-Ubuntu/actions/symbolic/mail-reply-sender-symbolic.svg

<svg width="16" height="16" version="1.1" xmlns="http://www.w3.org/2000/svg">
 <g transform="matrix(1,0,0,-1,0,18)" style="fill:#808080">
  <path d="m16 8.5c0 1.5-0.64 2.493-1.558 2.974-0.917 0.482-2.019 0.526-3.071 0.526h-8.54v-1h8.54c1.012 0 1.976-0.08 2.606-0.411 0.631-0.331 1.023-0.839 1.023-2.089v-4.5h1z" font-weight="400" overflow="visible"/>
  <path d="m5 9-2e-3 5a36.975 36.975 0 0 1-2.323-1.166c-0.78-0.431-1.534-0.876-2.259-1.334 0.725-0.449 1.478-0.889 2.26-1.32 0.788-0.43 1.562-0.823 2.323-1.18z" overflow="visible"/>
 </g>
</svg>

<?xml version="1.0" encoding="UTF-8" standalone="no"?>
<svg
   xmlns:dc="http://purl.org/dc/elements/1.1/"
   xmlns:cc="http://creativecommons.org/ns#"
   xmlns:rdf="http://www.w3.org/1999/02/22-rdf-syntax-ns#"
   xmlns:svg="http://www.w3.org/2000/svg"
   xmlns="http://www.w3.org/2000/svg"
   xmlns:sodipodi="http://sodipodi.sourceforge.net/DTD/sodipodi-0.dtd"
   xmlns:inkscape="http://www.inkscape.org/namespaces/inkscape"
   height="16"
   width="16"
   version="1.1"
   id="svg8"
   sodipodi:docname="mail-reply-sender-symbolic.svg"
   inkscape:version="0.92.3 (2405546, 2018-03-11)">
  <metadata
     id="metadata14">
    <rdf:RDF>
      <cc:Work
         rdf:about="">
        <dc:format>image/svg+xml</dc:format>
        <dc:type
           rdf:resource="http://purl.org/dc/dcmitype/StillImage" />
      </cc:Work>
    </rdf:RDF>
  </metadata>
  <defs
     id="defs12" />
  <sodipodi:namedview
     pagecolor="#ffffff"
     bordercolor="#666666"
     borderopacity="1"
     objecttolerance="10"
     gridtolerance="10"
     guidetolerance="10"
     inkscape:pageopacity="0"
     inkscape:pageshadow="2"
     inkscape:window-width="770"
     inkscape:window-height="480"
     id="namedview10"
     showgrid="false"
     inkscape:zoom="14.75"
     inkscape:cx="8"
     inkscape:cy="8"
     inkscape:window-x="0"
     inkscape:window-y="34"
     inkscape:window-maximized="0"
     inkscape:current-layer="svg8" />
  <g
     id="g6"
     transform="matrix(1,0,0,-1,0,18)"
     style="color:#000000;fill:#808080">
    <path
       d="M 16,8.5 C 16,10 15.36,10.993 14.442,11.474 13.525,11.956 12.423,12 11.371,12 h -8.54 v -1 h 8.54 c 1.012,0 1.976,-0.08 2.606,-0.411 C 14.608,10.258 15,9.75 15,8.5 V 4 h 1 z"
       style="font-weight:400;line-height:normal;font-family:sans-serif;font-variant-ligatures:none;font-variant-position:normal;font-variant-caps:normal;font-variant-numeric:normal;font-variant-alternates:normal;font-feature-settings:normal;text-indent:0;text-align:start;text-decoration:none;text-decoration-line:none;text-decoration-style:solid;text-decoration-color:#000000;text-transform:none;white-space:normal;shape-padding:0;overflow:visible;isolation:auto;mix-blend-mode:normal;marker:none"
       font-weight="400"
       overflow="visible"
       id="path2"
       inkscape:connector-curvature="0" />
    <path
       d="M 5,9 4.998,14 A 36.975,36.975 0 0 1 2.675,12.834 C 1.895,12.403 1.141,11.958 0.416,11.5 1.141,11.051 1.894,10.611 2.676,10.18 3.464,9.75 4.238,9.357 4.999,9 Z"
       style="overflow:visible;marker:none"
       overflow="visible"
       id="path4"
       inkscape:connector-curvature="0" />
  </g>
</svg>
